icons/midnadark/actions/24/draw-square-inverted-corners.svg

<svg xmlns="http://www.w3.org/2000/svg" viewBox="0 0 22 22"><path transform="translate(-1-1)" d="m8 4v.508 1.992c0 .831-.669 1.5-1.5 1.5h-2.5v1 6 1h2.5c.831 0 1.5.669 1.5 1.5v1.992.508h1 6 1v-.508-1.992c0-.831.669-1.5 1.5-1.5h1.992.508v-1-6-1h-.508-1.992c-.831 0-1.5-.669-1.5-1.5v-2.5h-1-6" fill="#fff"/></svg>

<?xml version="1.0" encoding="UTF-8" standalone="no"?>
<!-- Created with Inkscape (http://www.inkscape.org/) -->

<svg
   xmlns:dc="http://purl.org/dc/elements/1.1/"
   xmlns:cc="http://creativecommons.org/ns#"
   xmlns:rdf="http://www.w3.org/1999/02/22-rdf-syntax-ns#"
   xmlns:svg="http://www.w3.org/2000/svg"
   xmlns="http://www.w3.org/2000/svg"
   xmlns:sodipodi="http://sodipodi.sourceforge.net/DTD/sodipodi-0.dtd"
   xmlns:inkscape="http://www.inkscape.org/namespaces/inkscape"
   width="22"
   height="22"
   id="svg3869"
   version="1.1"
   inkscape:version="0.91 r13725"
   sodipodi:docname="draw-square-inverted-corners.svg">
  <defs
     id="defs3871" />
  <sodipodi:namedview
     id="base"
     pagecolor="#ffffff"
     bordercolor="#666666"
     borderopacity="1.0"
     inkscape:pageopacity="0.0"
     inkscape:pageshadow="2"
     inkscape:zoom="15.999999"
     inkscape:cx="-1.5340768"
     inkscape:cy="8.0126835"
     inkscape:document-units="px"
     inkscape:current-layer="layer1"
     showgrid="true"
     fit-margin-top="0"
     fit-margin-left="0"
     fit-margin-right="0"
     fit-margin-bottom="0"
     inkscape:window-width="1366"
     inkscape:window-height="633"
     inkscape:window-x="0"
     inkscape:window-y="33"
     inkscape:window-maximized="1"
     inkscape:showpageshadow="false"
     inkscape:object-nodes="true"
     inkscape:snap-bbox="true">
    <inkscape:grid
       type="xygrid"
       id="grid4132" />
    <sodipodi:guide
       position="4,18"
       orientation="18,0"
       id="guide4138" />
    <sodipodi:guide
       position="5,3"
       orientation="0,18"
       id="guide4140" />
    <sodipodi:guide
       position="20,2.0000174"
       orientation="-18,0"
       id="guide4142" />
    <sodipodi:guide
       position="2,21"
       orientation="0,-18"
       id="guide4144" />
    <sodipodi:guide
       position="3,19.000017"
       orientation="16,0"
       id="guide4146" />
    <sodipodi:guide
       position="2,4"
       orientation="0,16"
       id="guide4148" />
    <sodipodi:guide
       position="21,20"
       orientation="-16,0"
       id="guide4150" />
    <sodipodi:guide
       position="2,20"
       orientation="0,-16"
       id="guide4152" />
  </sodipodi:namedview>
  <metadata
     id="metadata3874">
    <rdf:RDF>
      <cc:Work
         rdf:about="">
        <dc:format>image/svg+xml</dc:format>
        <dc:type
           rdf:resource="http://purl.org/dc/dcmitype/StillImage" />
        <dc:title />
      </cc:Work>
    </rdf:RDF>
  </metadata>
  <g
     inkscape:label="Capa 1"
     inkscape:groupmode="layer"
     id="layer1"
     transform="translate(-326,-534.3622)">
    <g
       transform="translate(-225.28572,-73.2857)"
       id="layer1-2"
       inkscape:label="Capa 1"
       style="fill:#ffffff;fill-opacity:1">
      <path
         inkscape:connector-curvature="0"
         id="rect4112"
         transform="translate(550.28572,606.6479)"
         d="M 8,4 8,4.5078125 8,6.5 C 8,7.331 7.331,8 6.5,8 L 4,8 l 0,1 0,6 0,1 2.5,0 C 7.331,16 8,16.669 8,17.5 L 8,19.492188 8,20 l 1,0 6,0 1,0 0,-0.507812 L 16,17.5 C 16,16.669 16.669,16 17.5,16 L 19.492188,16 20,16 20,15 20,9 20,8 19.492188,8 17.5,8 C 16.669,8 16,7.331 16,6.5 L 16,4 15,4 9,4 Z"
         style="opacity:1;fill:#ffffff;fill-opacity:1;stroke:none"
         sodipodi:nodetypes="ccssccccssccccccssccccccsscccc" />
    </g>
  </g>
</svg>
